X:1
T: The Sleepless Swain
N:
C:"Noch Dagh noch Nacht is Mijne rust"
S: Play  3  times
A:
O:
R:
M:3/4
K:Am
I:speed 150
%W: A1
% voice 1 (1 lines, 20 notes)
K:Am
M:3/4
L:1/16
e4 c4 A4 |f12 |d4 B4 G4 |e12 |A6 c2 B2 A2 |^G4 E4 e4 |d2 c2 B6 A2 |A12 |
%W: A2
% voice 1 (1 lines, 20 notes)
e4 c4 A4 |f12 |d4 B4 G4 |e12 |A6 c2 B2 A2 |^G4 E4 e4 |d2 c2 B6 A2 |A12 |
%W: B1
% voice 1 (1 lines, 19 notes)
c4 d4 e4 |A12 |B4 c4 d4 |G12 |A4 B4 c4 |B4 G4 g4 |f2 e2 d6 c2 |c12 |
%W: B2
% voice 1 (1 lines, 19 notes)
c4 d4 e4 |A12 |B4 c4 d4 |G12 |A4 B4 c4 |B4 G4 g4 |f2 e2 d6 c2 |c12 |
%W: C
% voice 1 (1 lines, 20 notes)
e4 c4 A4 |f12 |d4 B4 G4 |e12 |A6 c2 B2 A2 |^G4 E4 e4 |d2 c2 B6 A2 |A12 ||
